X: 4299
M: C|
L: 1/8
K: G
|:\
[1 G2B>d G>dB>d | D2F>A D>AF>A :|\
[2 d>gf>e d>cB>A | G2B2G2 z2 |:\
d>gf>e d>cB>A | G2B2G2 z2 :|


